!!!COM: Hugo Wolf
!!!CNT: Deutscher
!!!TXO: Deutsche 
!!!OTL: Das Sta2ndchen
!!!ODT: 1888/09/28
!!!LYR: Joseph von Eichendorff
!!!ENC: Brian Bice
!!!YOR: 45 Songs on Poems of Goethe and Eichendorff, Dover Publications, 1995
!!NB: Vocal melody and text only encoded.
**kern	**silbe
*clefG2	*
*k[f#c#]	*
*M3/4	*
=9	=9
4r	.
4r	.
{8.a	{Auf
16a	die
=10	=10
4.dd	Da2-
8dd	-cher
8dd	zwi-
8cc#	-schen
=11	=11
2ccn	blas-
4b}	-sen}
=12	=12
{2b-	{Wol-
4dd	-ken
=13	=13
4.a	schaut
8a	der
[4a	Mond
=14	=14
8a]	|
8a	her-
2a}	-fu2r,}
=15	=15
4r	.
4r	.
{8a	{ein
8a	Stu-
=16	=16
4dd	-dent
4a	dort
8g	auf
8f#	der
=17	=17
4e	Gas-
4d	-sen
[4d	singt
=18	=18
4.d]	|
8e	vor
(8f#	sei-
[8a	|
=19	=19
8a])	|
8b	-ner
4.a	Lieb-
8f#	-sten
=20	=20
2a}	Tu2r}
4r	.
=21	=21
4r	.
{4c#	{Und
4c#	die
=22	=22
4.c##	Brun-
8c##	-nen
[4c##	rau-
=23	=23
8c##]	|
8d#	-schen
2b	wie-
=24	=24
4b}	-der}
{4a#	{durch
4g#	die
=25	=25
2cc#	stil-
4g#	-le
=26	=26
2g#	Win-
4g##	-sam-
=27	=27
4a#}	-keit}
8r	.
{4c#	{und
8c#	der
=28	=28
4.c##	Wald
8c##	vom
[4c##	Ber-
=29	=29
8c##]	|
8d#	-ge
2f#	nie-
=30	=30
4f#}	-der,}
{4f#	{wie
4g#	in
=31	=31
(4a#	al
[2cc#	|
=32	=32
8cc#]	|
8ccn	-ter,
4.ee-	scho2-
16dd-	-ner
16ccn	|
=33	=33
2b-)}	Zeit.}
4r	.
=34	=34
8r	.
{4dd	{So
8dd	in
8dd	mei-
8dd	-nen
=35	=35
(16dd	jun-
16ccn)	|
(16ccn	-gen
16b-)	|
[2ee-	Ta-
=36	=36
8ee-]	|
8ee-}	-gen}
{4dd	{hab'
4ccn	ich
=37	=37
2ccn	man-
4g-	-che
=38	=38
2ffn	Som-
4cc#	-mer-
=39	=39
4dd}	-nacht}
{4dd	{auch
4dd	die
=40	=40
4.dd	Lau-
8dd	-te
8ccn	hier
8b-	ge-
=41	=41
(8.b-	-schla-
16ee-)	|
2ee-}	-gen}
=42	=42
4r	.
{4ee-	{und
4ee-	manch
=43	=43
8dd	lust-
8ffn	-'ges
4.cc#	Lied
8dd	er-
=44	=44
2b-}	-dacht.}
4r	.
=47	=47
4r	.
4r	.
{[4a	{A-
=48	=48
8a]	|
8a	-ber
8a	von
8a	der
8a#	stil-
8a#	-len
=49	=49
8ccn	Schwel-
8ccn	-le
4ccn	tru-
4b	-gen
=50	=50
8b-	sie
8b-	mein
4.dd	Lieb
8f#	zur
=51	=51
[2.a	Ruh'
=52	=52
2a]}	|}
4r	.
=54	=54
8r	.
{4dd	{und
8dd	du,
8cc#	fri2h-
8cc#	-li-
=55	=55
8ccn	-cher
8ccn	Ge-
4ccn	-sel-
4b	-le,
=56	=56
8b-	sin-
8dd	-ge,
4.dd	sing'
8f#	nur
=57a	=57
8a	im-
8ee	-mer
[2dd	zu!
=58	=58
2dd]}	|}
4r	.
=60	=60
4r	.
{4.a	{sing'
8a	nur
=61	=61
4a}	zu,}
4r	.
4r	.
=62	=62
4r	.
{4.a	{im-
8ee	-mer-
=63	=63
[2.dd	-zu!
=64	=64
4dd]}	|}
4r	.
4r	.
*-	*-
